FYEO Website/Assets/shield.svg

<svg width="51" height="51" viewBox="0 0 51 51" fill="none" xmlns="http://www.w3.org/2000/svg">
<g clip-path="url(#clip0_5_176)">
<path d="M25.2563 23.0393C24.4563 23.0393 23.8229 23.6893 23.8229 24.4726C23.8229 25.256 24.4729 25.906 25.2563 25.906C26.0396 25.906 26.6896 25.256 26.6896 24.4726C26.6896 23.6893 26.0396 23.0393 25.2563 23.0393Z" fill="#FFA200"/>
<path d="M25.2563 13.2227C23.4896 13.2227 22.0563 14.7727 22.0563 16.6893V18.006H28.4563V16.6893C28.4563 14.7727 27.0229 13.2227 25.2563 13.2227Z" fill="#FFA200"/>
<path d="M44.9896 4.32262C38.7396 1.60595 31.9729 0.222621 25.1563 0.289288C18.3396 0.222621 11.5729 1.60595 5.32294 4.32262C4.13961 4.85595 3.37294 6.05595 3.38961 7.35595V24.2726C3.38961 35.2226 10.1729 45.0393 20.4396 48.9726L22.7563 49.856C24.3063 50.456 26.0229 50.456 27.5729 49.856L29.8896 48.9726C40.1563 45.0393 46.9396 35.2226 46.9396 24.2726V7.33929C46.9396 6.03929 46.1896 4.85595 45.0063 4.30595L44.9896 4.32262ZM33.3396 31.7393C33.3396 32.206 32.9729 32.5726 32.5063 32.5726H17.9896C17.5229 32.5726 17.1563 32.206 17.1563 31.7393V18.8393C17.1563 18.3726 17.5229 18.006 17.9896 18.006H20.3896V16.6893C20.3896 13.856 22.5729 11.556 25.2563 11.556C27.9396 11.556 30.1229 13.856 30.1229 16.6893V18.006H32.5229C32.9896 18.006 33.3563 18.3726 33.3563 18.8393V31.7393H33.3396Z" fill="#FFA200"/>
</g>
<defs>
<clipPath id="clip0_5_176">
<rect width="50" height="50" fill="white" transform="translate(0.15625 0.289307)"/>
</clipPath>
</defs>
</svg>

<?xml version="1.0" encoding="UTF-8"?>
<svg xmlns="http://www.w3.org/2000/svg" xmlns:xlink="http://www.w3.org/1999/xlink" version="1.1" viewBox="0 0 51 51">
  <defs>
    <style>
      .cls-1 {
        fill: none;
      }

      .cls-2 {
        fill: #00b00c;
      }

      .cls-3 {
        clip-path: url(#clippath);
      }
    </style>
    <clipPath id="clippath">
      <rect class="cls-1" x=".2" y=".3" width="50" height="50"/>
    </clipPath>
  </defs>
  <!-- Generator: Adobe Illustrator 28.7.1, SVG Export Plug-In . SVG Version: 1.2.0 Build 142)  -->
  <g>
    <g id="Layer_1">
      <g id="Layer_1-2" data-name="Layer_1">
        <g class="cls-3">
          <g>
            <path class="cls-2" d="M25.3,23c-.8,0-1.4.6-1.4,1.4s.6,1.4,1.4,1.4,1.4-.6,1.4-1.4-.6-1.4-1.4-1.4Z"/>
            <path class="cls-2" d="M25.3,13.2c-1.8,0-3.2,1.6-3.2,3.5v1.3h6.4v-1.3c0-1.9-1.4-3.5-3.2-3.5Z"/>
            <path class="cls-2" d="M45,4.3C38.7,1.6,32,.2,25.2.3,18.4.3,11.6,1.6,5.4,4.3c-1.2.5-1.9,1.7-1.9,3v16.9c0,10.9,6.8,20.8,17,24.7l2.3.9c1.5.6,3.3.6,4.8,0l2.3-.9c10.3-3.9,17.1-13.8,17.1-24.7V7.3c0-1.3-.8-2.5-1.9-3h0ZM33.3,31.7c0,.5-.4.8-.8.8h-14.5c-.5,0-.8-.4-.8-.8v-12.9c0-.5.4-.8.8-.8h2.4v-1.3c0-2.8,2.2-5.1,4.9-5.1s4.9,2.3,4.9,5.1v1.3h2.4c.5,0,.8.4.8.8v12.9h0Z"/>
          </g>
        </g>
      </g>
    </g>
  </g>
</svg>
